;FLAVOR:Marlin
;TIME:4131
;Filament used: 2.6133m
;Layer height: 0.2
;MINX:74.285
;MINY:102.335
;MINZ:0.2
;MAXX:160.715
;MAXY:132.665
;MAXZ:5
;Generated with Cura_SteamEngine 4.8.0
M140 S55
M105
M190 S55
M104 S210
M105
M109 S210
M82 ;absolute extrusion mode
; Ender 3 Custom Start G-code
G92 E0 ; Reset Extruder
G28 ; Home all axes
G1 Z2.0 F3000 ; Move Z Axis up little to prevent scratching of Heat Bed
G1 X0.1 Y20 Z0.3 F5000.0 ; Move to start position
G1 X0.1 Y200.0 Z0.3 F1500.0 E15 ; Draw the first line
G1 X0.4 Y200.0 Z0.3 F5000.0 ; Move to side a little
G1 X0.4 Y20 Z0.3 F1500.0 E30 ; Draw the second line
G92 E0 ; Reset Extruder
G1 Z2.0 F3000 ; Move Z Axis up little to prevent scratching of Heat Bed
G1 X5 Y20 Z0.3 F5000.0 ; Move over to prevent blob squish
G92 E0
G92 E0
G1 F2700 E-5
;LAYER_COUNT:25
;LAYER:0
M107
G0 F6000 X155.483 Y106.4 Z0.2
;TYPE:SKIRT
G1 F2700 E0
G1 F1200 X156.65 Y106.4 E0.03881
G1 X156.65 Y106.699 E0.04876
G1 X156.152 Y106.699 E0.06532
G1 X155.877 Y106.675 E0.0745
G1 X155.598 Y106.529 E0.08498
G1 X155.483 Y106.4 E0.09073
G0 F6000 X155.221 Y106.719
G1 F1200 X155.05 Y106.451 E0.1013
G1 X154.963 Y106.144 E0.11191
G1 X154.955 Y106 E0.11671
G1 X157.05 Y106 E0.18639
G1 X157.05 Y107.099 E0.22294
G1 X156.134 Y107.099 E0.25341
G1 X155.765 Y107.06 E0.26575
G1 X155.473 Y106.933 E0.27634
G1 X155.221 Y106.719 E0.28734
G0 F6000 X154.787 Y106.805
G1 F1200 X154.606 Y106.398 E0.30215
G1 X154.55 Y105.929 E0.31786
G1 X154.55 Y105.6 E0.3288
G1 X157.45 Y105.6 E0.42526
G1 X157.45 Y107.499 E0.48842
G1 X156.116 Y107.499 E0.53279
G1 X155.846 Y107.484 E0.54178
G1 X155.452 Y107.373 E0.5554
G1 X155.082 Y107.143 E0.56989
G1 X154.787 Y106.805 E0.58481
G0 F6000 X154.461 Y107.038
G1 F1200 X154.33 Y106.801 E0.59382
G1 X154.227 Y106.528 E0.60352
G1 X154.172 Y106.277 E0.61207
G1 X154.165 Y106.215 E0.61414
G1 X154.15 Y105.931 E0.6236
G1 X154.15 Y105.2 E0.64791
G1 X157.85 Y105.2 E0.77098
G1 X157.85 Y107.9 E0.86078
G1 X156.12 Y107.899 E0.91832
G1 X155.848 Y107.887 E0.92737
G1 X155.58 Y107.84 E0.93642
G1 X155.539 Y107.828 E0.93784
G1 X155.294 Y107.741 E0.94649
G1 X155.064 Y107.622 E0.95511
G1 X154.832 Y107.455 E0.96461
G1 X154.628 Y107.257 E0.97407
G1 X154.461 Y107.038 E0.98323
G0 F6000 X154.122 Y107.251
G1 F1200 X154.1 Y107.216 E0.9846
G1 X153.968 Y106.971 E0.99386
G1 X153.936 Y106.898 E0.99651
G1 X153.841 Y106.636 E1.00578
G1 X153.825 Y106.577 E1.00781
G1 X153.775 Y106.33 E1.01619
G1 X153.766 Y106.252 E1.01881
G1 X153.75 Y105.952 E1.0288
G1 X153.75 Y104.8 E1.06711
G1 X158.25 Y104.8 E1.21678
G1 X158.25 Y108.3 E1.3332
G1 X156.103 Y108.299 E1.4046
G1 X155.819 Y108.286 E1.41406
G1 X155.488 Y108.229 E1.42523
G1 X155.403 Y108.205 E1.42817
G1 X155.154 Y108.116 E1.43696
G1 X155.095 Y108.09 E1.43911
G1 X154.851 Y107.961 E1.44829
G1 X154.811 Y107.935 E1.44988
G1 X154.576 Y107.763 E1.45956
G1 X154.52 Y107.714 E1.46204
G1 X154.339 Y107.535 E1.4705
G1 X154.296 Y107.485 E1.4727
G1 X154.122 Y107.251 E1.4824
G0 F6000 X153.796 Y107.484
G1 F1200 X153.753 Y107.416 E1.48507
G1 X153.605 Y107.142 E1.49543
G1 X153.567 Y107.053 E1.49865
G1 X153.465 Y106.775 E1.5085
G1 X153.434 Y106.664 E1.51233
G1 X153.379 Y106.388 E1.52169
G1 X153.368 Y106.29 E1.52497
G1 X153.35 Y105.954 E1.53616
G1 X153.35 Y104.4 E1.58785
G1 X158.65 Y104.4 E1.76413
G1 X158.65 Y108.7 E1.90715
G1 X156.108 Y108.699 E1.99169
G1 X155.78 Y108.684 E2.00261
G1 X155.653 Y108.669 E2.00687
G1 X155.396 Y108.619 E2.01557
G1 X155.284 Y108.588 E2.01944
G1 X155.013 Y108.491 E2.02901
G1 X154.916 Y108.448 E2.03254
G1 X154.66 Y108.313 E2.04217
G1 X154.568 Y108.254 E2.0458
G1 X154.333 Y108.082 E2.05549
G1 X154.245 Y108.005 E2.05938
G1 X154.043 Y107.805 E2.06883
G1 X153.985 Y107.738 E2.07178
G1 X153.796 Y107.484 E2.08231
G0 F6000 X153.463 Y107.707
G1 F1200 X153.405 Y107.615 E2.08593
G1 X153.25 Y107.327 E2.09681
G1 X153.194 Y107.199 E2.10145
G1 X153.086 Y106.904 E2.1119
G1 X153.045 Y106.753 E2.11711
G1 X152.986 Y106.461 E2.12701
G1 X152.97 Y106.327 E2.1315
G1 X152.95 Y105.956 E2.14386
G1 X152.95 Y104 E2.20892
G1 X159.05 Y104 E2.4118
G1 X159.05 Y109.119 E2.58206
G1 X158.915 Y109.1 E2.5866
G1 X156.09 Y109.099 E2.68056
G1 X155.752 Y109.084 E2.69181
G1 X155.598 Y109.065 E2.69697
G1 X155.303 Y109.008 E2.70696
G1 X155.169 Y108.971 E2.71159
G1 X154.851 Y108.857 E2.72282
G1 X154.747 Y108.811 E2.72661
G1 X154.455 Y108.657 E2.73759
G1 X154.348 Y108.588 E2.74182
G1 X154.076 Y108.389 E2.75303
G1 X153.992 Y108.316 E2.75673
G1 X153.748 Y108.074 E2.76816
G1 X153.666 Y107.979 E2.77233
G1 X153.463 Y107.707 E2.78362
G0 F6000 X153.137 Y107.939
G1 F1200 X153.061 Y107.82 E2.78832
G1 X152.885 Y107.493 E2.80067
G1 X152.829 Y107.364 E2.80535
G1 X152.7 Y107.01 E2.81788
G1 X152.657 Y106.856 E2.8232
G1 X152.591 Y106.526 E2.83439
G1 X152.57 Y106.349 E2.84032
G1 X152.55 Y105.971 E2.85291
G1 X152.55 Y103.686 E2.92891
G1 X152.534 Y103.6 E2.93182
G1 X159.45 Y103.6 E3.16185
G1 X159.45 Y109.631 E3.36244
G1 X159.084 Y109.524 E3.37512
G1 X158.915 Y109.5 E3.3808
G1 X156.072 Y109.499 E3.47536
G1 X155.723 Y109.483 E3.48698
G1 X155.531 Y109.46 E3.49341
G1 X155.211 Y109.397 E3.50425
G1 X155.046 Y109.352 E3.50994
G1 X154.711 Y109.232 E3.52178
G1 X154.578 Y109.173 E3.52662
G1 X154.248 Y108.999 E3.53903
G1 X154.123 Y108.919 E3.54396
G1 X153.826 Y108.701 E3.55622
G1 X153.716 Y108.606 E3.56105
G1 X153.459 Y108.351 E3.57309
G1 X153.351 Y108.226 E3.57859
G1 X153.137 Y107.939 E3.59049
G0 F6000 X152.811 Y108.171
G1 F1200 X152.714 Y108.019 E3.59649
G1 X152.523 Y107.664 E3.6099
G1 X152.455 Y107.506 E3.61562
G1 X152.321 Y107.139 E3.62861
G1 X152.266 Y106.94 E3.63548
G1 X152.196 Y106.59 E3.64735
G1 X152.171 Y106.382 E3.65432
G1 X152.15 Y105.979 E3.66774
G1 X152.15 Y103.686 E3.74401
G1 X152.091 Y103.545 E3.74909
G1 X151.792 Y103.246 E3.76316
G1 X151.969 Y103.2 E3.76924
G1 X159.85 Y103.2 E4.03136
G1 X159.85 Y110.383 E4.27027
G1 X159.539 Y110.096 E4.28434
G1 X159.459 Y110.051 E4.2874
G1 X158.971 Y109.908 E4.30431
G1 X158.915 Y109.9 E4.30619
G1 X156.077 Y109.899 E4.40058
G1 X155.682 Y109.881 E4.41374
G1 X155.466 Y109.855 E4.42097
G1 X155.13 Y109.79 E4.43235
G1 X154.914 Y109.73 E4.43981
G1 X154.57 Y109.607 E4.45196
G1 X154.397 Y109.531 E4.45825
G1 X154.047 Y109.346 E4.47141
G1 X153.888 Y109.244 E4.4777
G1 X153.583 Y109.02 E4.49028
G1 X153.441 Y108.897 E4.49653
G1 X153.16 Y108.618 E4.5097
G1 X153.041 Y108.48 E4.51576
G1 X152.811 Y108.171 E4.52857
G1 F2700 E-0.47143
G0 F6000 X159.333 Y110.365
G0 X159.628 Y110.637
G0 X159.815 Y111.129
G0 X159.814 Y123.823
G0 X159.691 Y124.272
G0 X159.419 Y124.575
G0 X159.019 Y124.728
G0 X156.172 Y125.1
G1 F2700 E4.52857
G1 F1200 X158.95 Y125.101 E4.62097
G1 X159.021 Y125.088 E4.62337
G1 X159.57 Y124.878 E4.64292
G1 X159.648 Y124.824 E4.64608
G1 X159.85 Y124.598 E4.65616
G1 X159.85 Y131.8 E4.8957
G1 X151.962 Y131.8 E5.15805
G1 X151.792 Y131.756 E5.16389
G1 X152.092 Y131.456 E5.17801
G1 X152.151 Y131.315 E5.18309
G1 X152.151 Y129.117 E5.2562
G1 X152.162 Y128.686 E5.27054
G1 X152.184 Y128.492 E5.27703
G1 X152.258 Y128.085 E5.29079
G1 X152.306 Y127.909 E5.29686
G1 X152.428 Y127.55 E5.30947
G1 X152.514 Y127.355 E5.31655
G1 X152.698 Y127.005 E5.32971
G1 X152.815 Y126.823 E5.3369
G1 X153.026 Y126.537 E5.34872
G1 X153.158 Y126.385 E5.35542
G1 X153.444 Y126.099 E5.36887
G1 X153.593 Y125.972 E5.37538
G1 X153.905 Y125.742 E5.38828
G1 X154.08 Y125.635 E5.3951
G1 X154.431 Y125.449 E5.40831
G1 X154.59 Y125.383 E5.41404
G1 X154.975 Y125.251 E5.42757
G1 X155.163 Y125.203 E5.43403
G1 X155.566 Y125.13 E5.44765
G1 X155.742 Y125.112 E5.45353
G1 X156.172 Y125.1 E5.46784
G0 F6000 X156.183 Y125.5
G1 F1200 X158.95 Y125.501 E5.55987
G1 X159.164 Y125.461 E5.56711
G1 X159.45 Y125.352 E5.57729
G1 X159.45 Y131.4 E5.77845
G1 X152.533 Y131.4 E6.00851
G1 X152.551 Y131.315 E6.0114
G1 X152.551 Y129.127 E6.08417
G1 X152.561 Y128.711 E6.09801
G1 X152.582 Y128.537 E6.10384
G1 X152.646 Y128.185 E6.11574
G1 X152.687 Y128.032 E6.12101
G1 X152.804 Y127.688 E6.13309
G1 X152.872 Y127.533 E6.13872
G1 X153.042 Y127.211 E6.15084
G1 X153.147 Y127.047 E6.15731
G1 X153.337 Y126.789 E6.16797
G1 X153.453 Y126.656 E6.17384
G1 X153.716 Y126.393 E6.18621
G1 X153.848 Y126.281 E6.19197
G1 X154.127 Y126.075 E6.2035
G1 X154.286 Y125.978 E6.2097
G1 X154.598 Y125.813 E6.22144
G1 X154.722 Y125.761 E6.22591
G1 X155.095 Y125.633 E6.23902
G1 X155.26 Y125.592 E6.24468
G1 X155.613 Y125.527 E6.25662
G1 X155.768 Y125.511 E6.2618
G1 X156.183 Y125.5 E6.27561
G0 F6000 X156.194 Y125.9
G1 F1200 X158.95 Y125.901 E6.36727
G1 X159.05 Y125.883 E6.37065
G1 X159.05 Y131 E6.54084
G1 X152.951 Y131 E6.7437
G1 X152.951 Y129.137 E6.80566
G1 X152.961 Y128.735 E6.81904
G1 X152.976 Y128.608 E6.82329
G1 X153.038 Y128.264 E6.83492
G1 X153.068 Y128.155 E6.83868
G1 X153.178 Y127.832 E6.85002
G1 X153.235 Y127.702 E6.85475
G1 X153.389 Y127.41 E6.86573
G1 X153.469 Y127.285 E6.87066
G1 X153.651 Y127.037 E6.88089
G1 X153.747 Y126.928 E6.88572
G1 X153.989 Y126.686 E6.89711
G1 X154.1 Y126.592 E6.90194
G1 X154.349 Y126.408 E6.91224
G1 X154.479 Y126.329 E6.9173
G1 X154.774 Y126.173 E6.9284
G1 X154.865 Y126.135 E6.93168
G1 X155.204 Y126.018 E6.94361
G1 X155.34 Y125.984 E6.94827
G1 X155.675 Y125.923 E6.9596
G1 X155.793 Y125.911 E6.96354
G1 X156.194 Y125.9 E6.97688
G0 F6000 X156.169 Y126.3
G1 F1200 X158.65 Y126.301 E7.0594
G1 X158.65 Y130.6 E7.20239
G1 X153.351 Y130.6 E7.37863
G1 X153.351 Y129.147 E7.42696
G1 X153.361 Y128.758 E7.4399
G1 X153.372 Y128.663 E7.44308
G1 X153.428 Y128.356 E7.45346
G1 X153.453 Y128.265 E7.4566
G1 X153.549 Y127.982 E7.46654
G1 X153.593 Y127.883 E7.47014
G1 X153.738 Y127.607 E7.48051
G1 X153.807 Y127.5 E7.48475
G1 X153.964 Y127.287 E7.49355
G1 X154.034 Y127.207 E7.49709
G1 X154.261 Y126.98 E7.50776
G1 X154.352 Y126.903 E7.51173
G1 X154.576 Y126.737 E7.521
G1 X154.676 Y126.677 E7.52488
G1 X154.944 Y126.534 E7.53498
G1 X155.008 Y126.508 E7.53728
G1 X155.32 Y126.401 E7.54825
G1 X155.42 Y126.376 E7.55168
G1 X155.724 Y126.32 E7.56196
G1 X155.832 Y126.309 E7.56557
G1 X156.169 Y126.3 E7.57678
G0 F6000 X156.179 Y126.7
G1 F1200 X158.25 Y126.701 E7.64567
G1 X158.25 Y130.2 E7.76204
G1 X153.751 Y130.2 E7.91168
G1 X153.751 Y129.112 E7.94787
G1 X153.759 Y128.804 E7.95811
G1 X153.769 Y128.718 E7.96099
G1 X153.82 Y128.437 E7.97049
G1 X153.835 Y128.383 E7.97236
G1 X153.924 Y128.122 E7.98153
G1 X153.953 Y128.058 E7.98387
G1 X154.079 Y127.816 E7.99294
G1 X154.279 Y127.534 E8.00444
G1 X154.321 Y127.486 E8.00656
G1 X154.54 Y127.267 E8.01686
G1 X154.589 Y127.226 E8.01899
G1 X154.796 Y127.073 E8.02755
G1 X154.88 Y127.021 E8.03083
G1 X155.111 Y126.899 E8.03952
G1 X155.151 Y126.882 E8.04097
G1 X155.44 Y126.783 E8.05113
G1 X155.505 Y126.767 E8.05335
G1 X155.783 Y126.716 E8.06276
G1 X155.857 Y126.709 E8.06523
G1 X156.179 Y126.7 E8.07594
G0 F6000 X156.19 Y127.1
G1 F1200 X157.85 Y127.101 E8.13115
G1 X157.85 Y129.8 E8.22092
G1 X154.151 Y129.8 E8.34395
G1 X154.151 Y129.112 E8.36683
G1 X154.158 Y128.828 E8.37628
G1 X154.163 Y128.791 E8.37753
G1 X154.214 Y128.513 E8.38693
G1 X154.298 Y128.267 E8.39557
G1 X154.428 Y128.013 E8.40506
G1 X154.585 Y127.792 E8.41408
G1 X154.615 Y127.758 E8.41559
G1 X154.812 Y127.561 E8.42485
G1 X155.018 Y127.406 E8.43343
G1 X155.279 Y127.263 E8.44333
G1 X155.549 Y127.169 E8.45283
G1 X155.834 Y127.113 E8.4625
G1 X155.881 Y127.109 E8.46406
G1 X156.19 Y127.1 E8.47435
G0 F6000 X155.901 Y127.508
G1 F1200 X156.201 Y127.5 E8.48433
G1 X157.45 Y127.5 E8.52587
G1 X157.45 Y129.4 E8.58906
G1 X154.551 Y129.4 E8.68548
G1 X154.551 Y129.137 E8.69423
G1 X154.559 Y128.844 E8.70398
G1 X154.667 Y128.42 E8.71853
G1 X154.79 Y128.189 E8.72724
G1 X155.071 Y127.866 E8.74148
G1 X155.448 Y127.626 E8.75634
G1 X155.901 Y127.508 E8.77191
G0 F6000 X156.212 Y127.9
G1 F1200 X157.05 Y127.9 E8.79978
G1 X157.05 Y129 E8.83637
G1 X154.955 Y129 E8.90605
G1 X154.989 Y128.716 E8.91556
G1 X155.118 Y128.418 E8.92636
G1 X155.344 Y128.159 E8.9378
G1 X155.606 Y127.995 E8.94808
G1 X155.937 Y127.908 E8.95946
G1 X156.212 Y127.9 E8.96861
G0 F6000 X156.223 Y128.3
G1 F1200 X156.65 Y128.3 E8.98281
G1 X156.65 Y128.6 E8.99279
G1 X155.481 Y128.6 E9.03167
G1 X155.684 Y128.406 E9.04101
G1 X155.981 Y128.307 E9.05142
G1 X156.223 Y128.3 E9.05948
G1 F2700 E4.05948
G0 F6000 X151.308 Y131.762
G0 X83.792 Y131.762
G0 X83.288 Y131.258
G0 X82.834 Y128.015
G1 F2700 E9.05948
G1 F1200 X82.918 Y128.424 E9.07336
G1 X82.956 Y128.831 E9.08696
G1 X82.961 Y129.035 E9.09375
G1 X82.951 Y129.297 E9.10247
G1 X82.949 Y131.315 E9.16959
G1 X83.008 Y131.456 E9.17467
G1 X83.307 Y131.755 E9.18873
G1 X83.133 Y131.8 E9.19471
G1 X75.15 Y131.8 E9.46023
G1 X75.15 Y124.583 E9.70026
G1 X75.153 Y124.574 E9.70058
G1 X75.288 Y124.806 E9.70951
G1 X75.4 Y124.896 E9.71429
G1 X76.014 Y125.091 E9.73571
G1 X76.075 Y125.1 E9.73776
G1 X78.742 Y125.1 E9.82647
G1 X79.202 Y125.093 E9.84177
G1 X79.641 Y125.134 E9.85644
G1 X80.038 Y125.216 E9.86992
G1 X80.438 Y125.345 E9.8839
G1 X80.808 Y125.506 E9.89732
G1 X81.168 Y125.711 E9.9111
G1 X81.501 Y125.951 E9.92475
G1 X81.805 Y126.225 E9.93836
G1 X82.104 Y126.559 E9.95327
G1 X82.335 Y126.878 E9.96637
G1 X82.539 Y127.234 E9.98002
G1 X82.705 Y127.61 E9.99369
G1 X82.834 Y128.015 E10.00783
G0 F6000 X82.452 Y128.135
G1 F1200 X82.524 Y128.495 E10.02004
G1 X82.557 Y128.859 E10.03219
G1 X82.551 Y129.273 E10.04596
G1 X82.549 Y131.314 E10.11385
G1 X82.565 Y131.4 E10.11676
G1 X75.55 Y131.4 E10.35008
G1 X75.55 Y125.363 E10.55087
G1 X75.893 Y125.472 E10.56284
G1 X76.075 Y125.5 E10.56896
G1 X78.759 Y125.499 E10.65823
G1 X79.188 Y125.493 E10.6725
G1 X79.584 Y125.53 E10.68573
G1 X79.943 Y125.605 E10.69793
G1 X80.31 Y125.724 E10.71076
G1 X80.623 Y125.861 E10.72213
G1 X80.963 Y126.055 E10.73515
G1 X81.248 Y126.261 E10.74684
G1 X81.515 Y126.501 E10.75878
G1 X81.781 Y126.796 E10.77199
G1 X82.004 Y127.104 E10.78464
G1 X82.187 Y127.424 E10.7969
G1 X82.334 Y127.761 E10.80913
G1 X82.452 Y128.135 E10.82217
G0 F6000 X82.062 Y128.223
G1 F1200 X82.127 Y128.542 E10.833
G1 X82.157 Y128.869 E10.84392
G1 X82.152 Y129.258 E10.85686
G1 X82.149 Y131 E10.9148
G1 X75.95 Y131 E11.12098
G1 X75.95 Y125.881 E11.29124
G1 X76.075 Y125.9 E11.29545
G1 X78.777 Y125.899 E11.38532
G1 X79.176 Y125.893 E11.39859
G1 X79.526 Y125.926 E11.41028
G1 X79.827 Y125.988 E11.4205
G1 X80.155 Y126.093 E11.43196
G1 X80.45 Y126.222 E11.44267
G1 X80.735 Y126.385 E11.45358
G1 X80.997 Y126.573 E11.46431
G1 X81.252 Y126.803 E11.47573
G1 X81.471 Y127.048 E11.48666
G1 X81.665 Y127.317 E11.49769
G1 X81.826 Y127.598 E11.50846
G1 X81.956 Y127.892 E11.51916
G1 X82.062 Y128.223 E11.53072
G0 F6000 X81.675 Y128.324
G1 F1200 X81.731 Y128.605 E11.54025
G1 X81.757 Y128.885 E11.5496
G1 X81.752 Y129.242 E11.56147
G1 X81.75 Y130.6 E11.60664
G1 X76.35 Y130.6 E11.78625
G1 X76.35 Y126.3 E11.92926
G1 X78.794 Y126.299 E12.01055
G1 X79.005 Y126.29 E12.01758
G1 X79.295 Y126.301 E12.02723
G1 X79.583 Y126.342 E12.0369
G1 X79.856 Y126.412 E12.04628
G1 X80.134 Y126.515 E12.05614
G1 X80.398 Y126.648 E12.06597
G1 X80.627 Y126.794 E12.075
G1 X80.853 Y126.975 E12.08463
G1 X81.06 Y127.182 E12.09437
G1 X81.155 Y127.295 E12.09928
G1 X81.335 Y127.543 E12.10947
G1 X81.475 Y127.79 E12.11892
G1 X81.578 Y128.025 E12.12745
G1 X81.675 Y128.324 E12.1379
G0 F6000 X81.249 Y128.293
G1 F1200 X81.336 Y128.666 E12.15064
G1 X81.36 Y129.028 E12.16271
G1 X81.351 Y129.295 E12.1716
G1 X81.35 Y130.2 E12.2017
G1 X76.75 Y130.2 E12.35469
G1 X76.75 Y126.7 E12.4711
G1 X78.733 Y126.7 E12.53706
G1 X78.999 Y126.69 E12.54591
G1 X79.406 Y126.717 E12.55948
G1 X79.715 Y126.787 E12.57002
G1 X79.987 Y126.888 E12.57967
G1 X80.312 Y127.064 E12.59196
G1 X80.59 Y127.278 E12.60363
G1 X80.77 Y127.458 E12.61209
G1 X80.834 Y127.534 E12.6154
