;FLAVOR:Marlin
;TIME:9224
;Filament used: 5.26069m
;Layer height: 0.2
;MINX:74.286
;MINY:91.2
;MINZ:0.2
;MAXX:160.715
;MAXY:143.8
;MAXZ:16.6
;Generated with Cura_SteamEngine 4.8.0
M140 S55
M105
M190 S55
M104 S205
M105
M109 S205
M82 ;absolute extrusion mode
; Ender 3 Custom Start G-code
G92 E0 ; Reset Extruder
G28 ; Home all axes
G1 Z2.0 F3000 ; Move Z Axis up little to prevent scratching of Heat Bed
G1 X0.1 Y20 Z0.3 F5000.0 ; Move to start position
G1 X0.1 Y200.0 Z0.3 F1500.0 E15 ; Draw the first line
G1 X0.4 Y200.0 Z0.3 F5000.0 ; Move to side a little
G1 X0.4 Y20 Z0.3 F1500.0 E30 ; Draw the second line
G92 E0 ; Reset Extruder
G1 Z2.0 F3000 ; Move Z Axis up little to prevent scratching of Heat Bed
G1 X5 Y20 Z0.3 F5000.0 ; Move over to prevent blob squish
G92 E0
G92 E0
G1 F2700 E-5
;LAYER_COUNT:83
;LAYER:0
M107
;MESH:Case_V0.0.2a.stl
G0 F6000 X155.95 Y133.734 Z0.2
;TYPE:WALL-INNER
G1 F2700 E0
G1 F1200 X159.152 Y131.885 E0.12298
G1 X159.45 Y131.713 E0.13442
G1 X159.45 Y132.057 E0.14092
G1 X159.45 Y132.058 E0.14095
G1 X159.45 Y139.994 E0.4049
G1 X159.433 Y140.325 E0.41593
G1 X159.382 Y140.67 E0.42753
G1 X159.303 Y140.988 E0.43842
G1 X159.196 Y141.289 E0.44905
G1 X159.043 Y141.611 E0.46091
G1 X158.883 Y141.878 E0.47126
G1 X158.675 Y142.159 E0.48289
G1 X158.453 Y142.403 E0.49386
G1 X158.209 Y142.625 E0.50483
G1 X157.931 Y142.832 E0.51636
G1 X157.663 Y142.993 E0.52676
G1 X157.344 Y143.143 E0.53848
G1 X157.035 Y143.254 E0.5494
G1 X156.72 Y143.332 E0.5602
G1 X156.386 Y143.382 E0.57143
G1 X156.02 Y143.4 E0.58362
G1 X152.056 Y143.4 E0.71546
G1 X151.725 Y143.383 E0.72648
G1 X151.38 Y143.332 E0.73808
G1 X151.065 Y143.254 E0.74888
G1 X150.756 Y143.143 E0.7598
G1 X150.437 Y142.993 E0.77152
G1 X150.169 Y142.832 E0.78192
G1 X149.891 Y142.625 E0.79345
G1 X149.647 Y142.403 E0.80442
G1 X149.425 Y142.159 E0.81539
G1 X149.217 Y141.878 E0.82702
G1 X149.057 Y141.611 E0.83737
G1 X148.904 Y141.289 E0.84923
G1 X148.797 Y140.988 E0.85985
G1 X148.718 Y140.67 E0.87075
G1 X148.667 Y140.325 E0.88235
G1 X148.65 Y140 E0.89318
G1 X148.65 Y132.751 E1.13428
G1 X147.299 Y131.4 E1.19783
G1 X87.701 Y131.4 E3.18006
G1 X86.35 Y132.751 E3.24361
G1 X86.35 Y139.994 E3.48451
G1 X86.333 Y140.325 E3.49554
G1 X86.282 Y140.67 E3.50714
G1 X86.203 Y140.988 E3.51804
G1 X86.096 Y141.289 E3.52866
G1 X85.943 Y141.611 E3.54052
G1 X85.783 Y141.878 E3.55087
G1 X85.575 Y142.159 E3.5625
G1 X85.353 Y142.403 E3.57347
G1 X85.109 Y142.625 E3.58444
G1 X84.831 Y142.832 E3.59597
G1 X84.563 Y142.993 E3.60637
G1 X84.244 Y143.143 E3.61809
G1 X83.935 Y143.254 E3.62901
G1 X83.62 Y143.332 E3.63981
G1 X83.286 Y143.382 E3.65104
G1 X82.92 Y143.4 E3.66323
G1 X78.956 Y143.4 E3.79507
G1 X78.625 Y143.383 E3.80609
G1 X78.28 Y143.332 E3.81769
G1 X77.965 Y143.254 E3.82849
G1 X77.656 Y143.143 E3.83941
G1 X77.337 Y142.993 E3.85113
G1 X77.069 Y142.832 E3.86153
G1 X76.791 Y142.625 E3.87306
G1 X76.547 Y142.403 E3.88403
G1 X76.325 Y142.159 E3.895
G1 X76.117 Y141.878 E3.90663
G1 X75.957 Y141.611 E3.91698
G1 X75.804 Y141.289 E3.92884
G1 X75.697 Y140.988 E3.93946
G1 X75.618 Y140.67 E3.95036
G1 X75.567 Y140.325 E3.96196
G1 X75.55 Y140 E3.97279
G1 X75.55 Y132.115 E4.23504
G1 X75.55 Y132.114 E4.23508
G1 X75.55 Y131.77 E4.24652
G1 X75.848 Y131.942 E4.25301
G1 X78.95 Y133.734 E4.37216
G1 X83.05 Y131.367 E4.52963
G1 X83.05 Y126.633 E4.68708
G1 X78.95 Y124.266 E4.84454
G1 X75.848 Y126.057 E4.96367
G1 X75.55 Y126.229 E4.97512
G1 X75.55 Y125.885 E4.98161
G1 X75.55 Y125.884 E4.98164
G1 X75.55 Y109.115 E5.53938
G1 X75.55 Y109.114 E5.53942
G1 X75.55 Y108.77 E5.55086
G1 X75.848 Y108.942 E5.55735
G1 X78.95 Y110.734 E5.67651
G1 X83.05 Y108.367 E5.83397
G1 X83.05 Y103.633 E5.99142
G1 X78.95 Y101.266 E6.14888
G1 X75.848 Y103.057 E6.26801
G1 X75.55 Y103.229 E6.27946
G1 X75.55 Y102.885 E6.28595
G1 X75.55 Y102.884 E6.28599
G1 X75.55 Y95.006 E6.54801
G1 X75.567 Y94.676 E6.559
G1 X75.619 Y94.324 E6.57083
G1 X75.697 Y94.012 E6.58153
G1 X75.804 Y93.711 E6.59216
G1 X75.957 Y93.387 E6.60407
G1 X76.116 Y93.122 E6.61435
G1 X76.325 Y92.841 E6.626
G1 X76.547 Y92.597 E6.63697
G1 X76.791 Y92.375 E6.64794
G1 X77.069 Y92.168 E6.65947
G1 X77.337 Y92.007 E6.66987
G1 X77.656 Y91.857 E6.68159
G1 X77.965 Y91.746 E6.69251
G1 X78.28 Y91.668 E6.70331
G1 X78.614 Y91.618 E6.71454
G1 X78.98 Y91.6 E6.72673
G1 X82.944 Y91.6 E6.85857
G1 X83.275 Y91.617 E6.8696
G1 X83.62 Y91.668 E6.8812
G1 X83.935 Y91.746 E6.89199
G1 X84.244 Y91.857 E6.90291
G1 X84.563 Y92.007 E6.91463
G1 X84.831 Y92.168 E6.92503
G1 X85.109 Y92.375 E6.93656
G1 X85.353 Y92.597 E6.94753
G1 X85.575 Y92.841 E6.9585
G1 X85.784 Y93.122 E6.97015
G1 X85.943 Y93.387 E6.98043
G1 X86.096 Y93.711 E6.99235
G1 X86.203 Y94.012 E7.00297
G1 X86.281 Y94.324 E7.01367
G1 X86.333 Y94.677 E7.02554
G1 X86.35 Y95 E7.03629
G1 X86.35 Y102.249 E7.2774
G1 X87.701 Y103.6 E7.34094
G1 X147.299 Y103.6 E9.32318
G1 X148.65 Y102.249 E9.38673
G1 X148.65 Y95.006 E9.62763
G1 X148.667 Y94.676 E9.63862
G1 X148.719 Y94.324 E9.65046
G1 X148.797 Y94.012 E9.66115
G1 X148.904 Y93.711 E9.67178
G1 X149.057 Y93.387 E9.6837
G1 X149.216 Y93.122 E9.69397
G1 X149.425 Y92.841 E9.70562
G1 X149.647 Y92.597 E9.71659
G1 X149.891 Y92.375 E9.72757
G1 X150.169 Y92.168 E9.73909
G1 X150.437 Y92.007 E9.74949
G1 X150.756 Y91.857 E9.76122
G1 X151.065 Y91.746 E9.77214
G1 X151.38 Y91.668 E9.78293
G1 X151.714 Y91.618 E9.79416
G1 X152.08 Y91.6 E9.80635
G1 X156.044 Y91.6 E9.93819
G1 X156.375 Y91.617 E9.94922
G1 X156.72 Y91.668 E9.96082
G1 X157.035 Y91.746 E9.97161
G1 X157.344 Y91.857 E9.98253
G1 X157.663 Y92.007 E9.99426
G1 X157.931 Y92.168 E10.00465
G1 X158.209 Y92.375 E10.01618
G1 X158.453 Y92.597 E10.02715
G1 X158.675 Y92.841 E10.03813
G1 X158.884 Y93.122 E10.04977
G1 X159.043 Y93.387 E10.06005
G1 X159.196 Y93.711 E10.07197
G1 X159.303 Y94.012 E10.08259
G1 X159.381 Y94.324 E10.09329
G1 X159.433 Y94.677 E10.10516
G1 X159.45 Y95 E10.11592
G1 X159.45 Y102.942 E10.38007
G1 X159.45 Y102.943 E10.3801
G1 X159.45 Y103.287 E10.39154
G1 X159.152 Y103.115 E10.39804
G1 X155.95 Y101.266 E10.52102
G1 X151.85 Y103.633 E10.67848
G1 X151.851 Y108.366 E10.8359
G1 X155.95 Y110.734 E10.99335
G1 X159.152 Y108.885 E11.11633
G1 X159.45 Y108.713 E11.12777
G1 X159.45 Y109.057 E11.13426
G1 X159.45 Y109.058 E11.1343
G1 X159.45 Y125.942 E11.69586
G1 X159.45 Y125.943 E11.6959
G1 X159.45 Y126.287 E11.70734
G1 X159.152 Y126.115 E11.71383
G1 X155.95 Y124.266 E11.83681
G1 X151.85 Y126.633 E11.99427
G1 X151.851 Y131.366 E12.15169
G1 X155.95 Y133.734 E12.30914
G0 F6000 X155.95 Y133.272
;TYPE:WALL-OUTER
G1 F1200 X159.65 Y131.136 E12.45124
G1 X159.65 Y126.864 E12.59333
G1 X155.95 Y124.728 E12.73542
G1 X152.25 Y126.864 E12.87752
G1 X152.251 Y131.135 E13.01957
G1 X155.95 Y133.272 E13.16166
G1 F2700 E8.16166
G0 F6000 X155.849 Y133.443
G0 X155.95 Y133.977
G0 X155.501 Y134.935
G0 X156.704 Y136.735
G0 X156.958 Y137.571
G0 X156.958 Y138.429
G0 X156.704 Y139.265
G0 X156.222 Y139.98
G0 X155.559 Y140.523
G0 X154.767 Y140.85
G0 X152.971 Y141.014
;TYPE:WALL-INNER
G1 F2700 E13.16166
G1 F1200 X153.272 Y141.105 E13.17212
G1 X153.58 Y141.166 E13.18256
G1 X153.892 Y141.197 E13.19299
G1 X154.208 Y141.197 E13.2035
G1 X154.519 Y141.166 E13.21389
G1 X154.828 Y141.105 E13.22437
G1 X155.129 Y141.014 E13.23483
G1 X155.419 Y140.893 E13.24528
G1 X155.696 Y140.745 E13.25573
G1 X155.957 Y140.57 E13.26618
G1 X156.2 Y140.371 E13.27662
G1 X156.421 Y140.15 E13.28702
G1 X156.62 Y139.907 E13.29747
G1 X156.795 Y139.646 E13.30792
G1 X156.943 Y139.369 E13.31836
G1 X157.064 Y139.079 E13.32881
G1 X157.155 Y138.778 E13.33927
G1 X157.216 Y138.47 E13.34972
G1 X157.247 Y138.158 E13.36014
G1 X157.247 Y137.842 E13.37065
G1 X157.216 Y137.53 E13.38108
G1 X157.155 Y137.222 E13.39153
G1 X157.064 Y136.921 E13.40198
G1 X156.943 Y136.631 E13.41244
G1 X156.795 Y136.354 E13.42288
G1 X156.62 Y136.093 E13.43333
G1 X156.421 Y135.85 E13.44378
G1 X156.2 Y135.629 E13.45417
G1 X155.957 Y135.43 E13.46462
G1 X155.696 Y135.255 E13.47507
G1 X155.419 Y135.107 E13.48552
G1 X155.129 Y134.986 E13.49597
G1 X154.828 Y134.895 E13.50643
G1 X154.519 Y134.834 E13.5169
G1 X154.208 Y134.803 E13.5273
G1 X153.892 Y134.803 E13.53781
G1 X153.58 Y134.834 E13.54824
G1 X153.272 Y134.895 E13.55868
G1 X152.971 Y134.986 E13.56914
G1 X152.681 Y135.107 E13.57959
G1 X152.404 Y135.255 E13.59004
G1 X152.143 Y135.43 E13.60049
G1 X151.9 Y135.629 E13.61094
G1 X151.679 Y135.85 E13.62133
G1 X151.48 Y136.093 E13.63178
G1 X151.305 Y136.354 E13.64223
G1 X151.157 Y136.631 E13.65267
G1 X151.036 Y136.921 E13.66313
G1 X150.945 Y137.222 E13.67358
G1 X150.884 Y137.53 E13.68403
G1 X150.853 Y137.842 E13.69446
G1 X150.853 Y138.158 E13.70497
G1 X150.884 Y138.47 E13.71539
G1 X150.945 Y138.778 E13.72584
G1 X151.036 Y139.079 E13.7363
G1 X151.157 Y139.369 E13.74675
G1 X151.305 Y139.646 E13.75719
G1 X151.48 Y139.907 E13.76764
G1 X151.679 Y140.15 E13.77809
G1 X151.9 Y140.371 E13.78849
G1 X152.143 Y140.57 E13.79893
G1 X152.404 Y140.745 E13.80938
G1 X152.681 Y140.893 E13.81983
G1 X152.971 Y141.014 E13.83028
G0 F6000 X153.106 Y140.637
;TYPE:WALL-OUTER
G1 F1200 X153.369 Y140.716 E13.83942
G1 X153.639 Y140.77 E13.84857
G1 X153.912 Y140.797 E13.8577
G1 X154.188 Y140.797 E13.86688
G1 X154.46 Y140.77 E13.87597
G1 X154.731 Y140.716 E13.88516
G1 X154.994 Y140.637 E13.89429
G1 X155.248 Y140.531 E13.90345
G1 X155.49 Y140.402 E13.91257
G1 X155.718 Y140.249 E13.9217
G1 X155.931 Y140.074 E13.93087
G1 X156.124 Y139.881 E13.93995
G1 X156.299 Y139.668 E13.94912
G1 X156.452 Y139.44 E13.95825
G1 X156.581 Y139.198 E13.96737
G1 X156.687 Y138.944 E13.97652
G1 X156.766 Y138.681 E13.98566
G1 X156.82 Y138.411 E13.99482
G1 X156.847 Y138.138 E14.00394
G1 X156.847 Y137.862 E14.01312
G1 X156.82 Y137.589 E14.02224
G1 X156.766 Y137.319 E14.0314
G1 X156.687 Y137.056 E14.04054
G1 X156.581 Y136.802 E14.04969
G1 X156.452 Y136.56 E14.05881
G1 X156.299 Y136.332 E14.06794
G1 X156.124 Y136.119 E14.07711
G1 X155.931 Y135.926 E14.08619
G1 X155.718 Y135.751 E14.09536
G1 X155.49 Y135.598 E14.10449
G1 X155.248 Y135.469 E14.11361
G1 X154.994 Y135.363 E14.12277
G1 X154.731 Y135.284 E14.1319
G1 X154.46 Y135.23 E14.14109
G1 X154.188 Y135.203 E14.15018
G1 X153.912 Y135.203 E14.15936
G1 X153.639 Y135.23 E14.16849
G1 X153.369 Y135.284 E14.17764
G1 X153.106 Y135.363 E14.18678
G1 X152.852 Y135.469 E14.19593
G1 X152.61 Y135.598 E14.20505
G1 X152.382 Y135.751 E14.21419
G1 X152.169 Y135.926 E14.22336
G1 X151.976 Y136.119 E14.23243
G1 X151.801 Y136.332 E14.2416
G1 X151.648 Y136.56 E14.25073
G1 X151.519 Y136.802 E14.25986
G1 X151.413 Y137.056 E14.26901
G1 X151.334 Y137.319 E14.27814
G1 X151.28 Y137.589 E14.2873
G1 X151.253 Y137.862 E14.29643
G1 X151.253 Y138.138 E14.30561
G1 X151.28 Y138.411 E14.31473
G1 X151.334 Y138.681 E14.32389
G1 X151.413 Y138.944 E14.33302
G1 X151.519 Y139.198 E14.34218
G1 X151.648 Y139.44 E14.3513
G1 X151.801 Y139.668 E14.36043
G1 X151.976 Y139.881 E14.3696
G1 X152.169 Y140.074 E14.37868
G1 X152.382 Y140.249 E14.38785
G1 X152.61 Y140.402 E14.39698
G1 X152.852 Y140.531 E14.4061
G1 X153.106 Y140.637 E14.41525
G0 F6000 X152.958 Y141.051
G1 F2700 E9.41525
G0 F6000 X151.684 Y139.745
G0 X151.279 Y138.983
G0 X151.114 Y138.147
G0 X151.2 Y137.283
G0 X151.527 Y136.491
G0 X152.07 Y135.828
G0 X153.882 Y134.612
G0 X154.919 Y132.814
G0 X152.117 Y131.211
G0 X152.116 Y126.788
G0 X155.95 Y124.064
G0 X159.259 Y125.957
G0 X159.259 Y109.043
G0 X155.849 Y110.443
G0 X155.95 Y110.272
G1 F2700 E14.41525
G1 F1200 X159.65 Y108.136 E14.55735
G1 X159.65 Y103.864 E14.69944
G1 X155.95 Y101.728 E14.84153
G1 X152.25 Y103.864 E14.98363
G1 X152.251 Y108.135 E15.12569
G1 X155.95 Y110.272 E15.26777
G1 F2700 E10.26777
G0 F6000 X155.849 Y110.443
G0 X152.117 Y108.211
G0 X152.116 Y103.788
G0 X154.249 Y102.55
G0 X154.151 Y102.063
G0 X153.882 Y100.39
G0 X152.97 Y100.016
;TYPE:WALL-INNER
G1 F2700 E15.26777
G1 F1200 X153.272 Y100.107 E15.27826
G1 X153.58 Y100.168 E15.2887
G1 X153.892 Y100.199 E15.29913
G1 X154.208 Y100.199 E15.30964
G1 X154.52 Y100.168 E15.32007
G1 X154.828 Y100.107 E15.33051
G1 X155.13 Y100.016 E15.341
G1 X155.419 Y99.895 E15.35143
G1 X155.697 Y99.748 E15.36188
G1 X155.958 Y99.572 E15.37235
G1 X156.201 Y99.373 E15.3828
G1 X156.423 Y99.151 E15.39324
G1 X156.622 Y98.908 E15.40369
G1 X156.798 Y98.647 E15.41416
G1 X156.945 Y98.369 E15.42462
G1 X157.066 Y98.08 E15.43504
G1 X157.157 Y97.778 E15.44553
G1 X157.218 Y97.47 E15.45597
G1 X157.249 Y97.158 E15.4664
G1 X157.249 Y96.842 E15.47691
G1 X157.218 Y96.53 E15.48734
G1 X157.157 Y96.222 E15.49778
G1 X157.066 Y95.92 E15.50827
G1 X156.945 Y95.631 E15.5187
G1 X156.798 Y95.353 E15.52915
G1 X156.622 Y95.092 E15.53962
G1 X156.423 Y94.849 E15.55007
G1 X156.201 Y94.627 E15.56051
G1 X155.958 Y94.428 E15.57096
G1 X155.697 Y94.252 E15.58143
G1 X155.419 Y94.105 E15.59189
G1 X155.13 Y93.984 E15.60231
G1 X154.828 Y93.893 E15.6128
G1 X154.52 Y93.832 E15.62324
G1 X154.208 Y93.801 E15.63367
G1 X153.892 Y93.801 E15.64418
G1 X153.58 Y93.832 E15.65461
G1 X153.272 Y93.893 E15.66505
G1 X152.97 Y93.984 E15.67554
G1 X152.681 Y94.105 E15.68597
G1 X152.403 Y94.252 E15.69642
G1 X152.142 Y94.428 E15.70689
G1 X151.899 Y94.627 E15.71734
G1 X151.677 Y94.849 E15.72778
G1 X151.478 Y95.092 E15.73823
G1 X151.302 Y95.353 E15.7487
G1 X151.155 Y95.631 E15.75916
G1 X151.034 Y95.92 E15.76958
G1 X150.943 Y96.222 E15.78007
G1 X150.882 Y96.53 E15.79051
G1 X150.851 Y96.842 E15.80094
G1 X150.851 Y97.158 E15.81145
G1 X150.882 Y97.47 E15.82188
G1 X150.943 Y97.778 E15.83232
G1 X151.034 Y98.08 E15.84281
G1 X151.155 Y98.369 E15.85324
G1 X151.302 Y98.647 E15.86369
G1 X151.478 Y98.908 E15.87416
G1 X151.677 Y99.151 E15.88461
G1 X151.899 Y99.373 E15.89505
G1 X152.142 Y99.572 E15.9055
G1 X152.403 Y99.748 E15.91597
G1 X152.681 Y99.895 E15.92643
G1 X152.97 Y100.016 E15.93685
G0 F6000 X153.105 Y99.639
;TYPE:WALL-OUTER
G1 F1200 X153.369 Y99.718 E15.94602
G1 X153.639 Y99.772 E15.95517
G1 X153.912 Y99.799 E15.9643
G1 X154.188 Y99.799 E15.97348
G1 X154.461 Y99.772 E15.9826
G1 X154.731 Y99.718 E15.99176
G1 X154.995 Y99.639 E16.00093
G1 X155.248 Y99.533 E16.01005
G1 X155.491 Y99.404 E16.0192
G1 X155.719 Y99.251 E16.02833
G1 X155.932 Y99.076 E16.0375
G1 X156.126 Y98.882 E16.04663
G1 X156.301 Y98.669 E16.0558
G1 X156.454 Y98.441 E16.06493
G1 X156.583 Y98.198 E16.07408
G1 X156.689 Y97.945 E16.0832
G1 X156.768 Y97.681 E16.09237
G1 X156.822 Y97.411 E16.10153
G1 X156.849 Y97.138 E16.11065
G1 X156.849 Y96.862 E16.11983
G1 X156.822 Y96.589 E16.12895
G1 X156.768 Y96.319 E16.13811
G1 X156.689 Y96.055 E16.14728
G1 X156.583 Y95.802 E16.1564
G1 X156.454 Y95.559 E16.16555
G1 X156.301 Y95.331 E16.17468
G1 X156.126 Y95.118 E16.18385
G1 X155.932 Y94.924 E16.19298
G1 X155.719 Y94.749 E16.20215
G1 X155.491 Y94.596 E16.21128
G1 X155.248 Y94.467 E16.22043
G1 X154.995 Y94.361 E16.22955
G1 X154.731 Y94.282 E16.23872
G1 X154.461 Y94.228 E16.24788
G1 X154.188 Y94.201 E16.257
G1 X153.912 Y94.201 E16.26618
G1 X153.639 Y94.228 E16.2753
G1 X153.369 Y94.282 E16.28446
G1 X153.105 Y94.361 E16.29363
G1 X152.852 Y94.467 E16.30275
G1 X152.609 Y94.596 E16.3119
G1 X152.381 Y94.749 E16.32103
G1 X152.168 Y94.924 E16.3302
G1 X151.974 Y95.118 E16.33933
G1 X151.799 Y95.331 E16.3485
G1 X151.646 Y95.559 E16.35763
G1 X151.517 Y95.802 E16.36678
G1 X151.411 Y96.055 E16.3759
G1 X151.332 Y96.319 E16.38507
G1 X151.278 Y96.589 E16.39423
G1 X151.251 Y96.862 E16.40335
G1 X151.251 Y97.138 E16.41253
G1 X151.278 Y97.411 E16.42166
G1 X151.332 Y97.681 E16.43081
G1 X151.411 Y97.945 E16.43998
G1 X151.517 Y98.198 E16.4491
G1 X151.646 Y98.441 E16.45825
G1 X151.799 Y98.669 E16.46739
G1 X151.974 Y98.882 E16.47655
G1 X152.168 Y99.076 E16.48568
G1 X152.381 Y99.251 E16.49485
